svgs/thin/chalkboard.svg

<svg xmlns="http://www.w3.org/2000/svg" viewBox="0 0 576 512"><!-- Font Awesome Pro 6.0.0-alpha2 by @fontawesome - https://fontawesome.com License - https://fontawesome.com/license (Commercial License) --><path d="M568 464H544V56C544 42.781 533.219 32 520 32H56C42.781 32 32 42.781 32 56V464H8C3.594 464 0 467.594 0 472S3.594 480 8 480H568C572.406 480 576 476.406 576 472S572.406 464 568 464ZM272 464V400H432V464H272ZM432 384H272C263.164 384 256 391.164 256 400V464H48V56C48 51.594 51.594 48 56 48H520C524.406 48 528 51.594 528 56V464H448V400C448 391.164 440.836 384 432 384Z"/></svg>

<svg xmlns="http://www.w3.org/2000/svg" viewBox="0 0 576 512"><!--! Font Awesome Pro 6.3.0 by @fontawesome - https://fontawesome.com License - https://fontawesome.com/license (Commercial License) Copyright 2023 Fonticons, Inc. --><path d="M568 464H544V56C544 42.78 533.2 32 520 32H56C42.78 32 32 42.78 32 56V464H8C3.594 464 0 467.6 0 472S3.594 480 8 480h560c4.406 0 8-3.594 8-8S572.4 464 568 464zM272 464v-64h160v64H272zM432 384h-160C263.2 384 256 391.2 256 400v64H48V56c0-4.406 3.594-8 8-8h464c4.406 0 8 3.594 8 8V464H448v-64C448 391.2 440.8 384 432 384z"/></svg>
